X: 750
T: The Mountainy Boy
M:6/8
L:1/8
B:O'Neill's 750
R:Jig
Z:"Transcribed by Bob Safranek, rjs@gsp.org"
N:"Collected by Cronin"
K:D
   d | cAA A2 G | FAA A2 d | cAB cAG | ABc dfd  |
       cAA A2 G | FAA A2 g | fed cAG | ABc d2  :|
|: g | fgf efe  | ded cde  | fag edc | edd d2 g |
       fgf efe  | ded cde  | fed cAG | ABc d2  :|


